exported-svg/info.svg

<?xml version="1.0" encoding="UTF-8"?>
<svg width="24px" height="24px" viewBox="0 0 24 24" version="1.1" xmlns="http://www.w3.org/2000/svg" xmlns:xlink="http://www.w3.org/1999/xlink">
    <!-- Generator: Sketch 55.2 (78181) - https://sketchapp.com -->
    <title>info</title>
    <desc>Created with Sketch.</desc>
    <g id="info" stroke="none" stroke-width="1" fill="none" fill-rule="evenodd">
        <path d="M12.5,23 C18.2989899,23 23,18.2989899 23,12.5 C23,6.70101013 18.2989899,2 12.5,2 C6.70101013,2 2,6.70101013 2,12.5 C2,18.2989899 6.70101013,23 12.5,23 Z M12.5,22 C7.25329488,22 3,17.7467051 3,12.5 C3,7.25329488 7.25329488,3 12.5,3 C17.7467051,3 22,7.25329488 22,12.5 C22,17.7467051 17.7467051,22 12.5,22 Z" id="Oval" fill="#000000" fill-rule="nonzero"></path>
        <path d="M13,16.4 C13,16.7313708 12.7761424,17 12.5,17 C12.2238576,17 12,16.7313708 12,16.4 L12,11.6 C12,11.2686292 12.2238576,11 12.5,11 C12.7761424,11 13,11.2686292 13,11.6 L13,16.4 Z M12.5,9 C12.2238576,9 12,8.77614237 12,8.5 C12,8.22385763 12.2238576,8 12.5,8 C12.7761424,8 13,8.22385763 13,8.5 C13,8.77614237 12.7761424,9 12.5,9 Z" id="Combined-Shape" fill="#000000" fill-rule="nonzero"></path>
    </g>
</svg>

<svg height="24" viewBox="0 0 24 24" width="24" xmlns="http://www.w3.org/2000/svg"><path d="m12.5 23c-5.79898987 0-10.5-4.7010101-10.5-10.5 0-5.79898987 4.70101013-10.5 10.5-10.5 5.7989899 0 10.5 4.70101013 10.5 10.5 0 5.7989899-4.7010101 10.5-10.5 10.5zm0-1c5.2467051 0 9.5-4.2532949 9.5-9.5 0-5.24670512-4.2532949-9.5-9.5-9.5-5.24670512 0-9.5 4.25329488-9.5 9.5 0 5.2467051 4.25329488 9.5 9.5 9.5zm.5-5.6c0 .3313708-.2238576.6-.5.6s-.5-.2686292-.5-.6v-4.8c0-.3313708.2238576-.6.5-.6s.5.2686292.5.6zm-.5-7.4c-.2761424 0-.5-.22385763-.5-.5s.2238576-.5.5-.5.5.22385763.5.5-.2238576.5-.5.5z"/></svg>
